X:1702
T:Keppoch's Rant
P:Glen Grant
C:Charles Grant
R:Strathspey (8x32)
B:RSCDS 17-2
Z:Anselm Lingnau <anselm@strathspey.org>
M:4/4
L:1/8
K:A
%%scale 0.84
E/D/|"A"C>E A>E "D"F>E "A"C>E|C>E A>c "D"d/c/B/A/ F>A|\
     "A"C>E A>E "D"F>E "A"C>E|"Bm"[FD]>D "E7"[BD]>G "A"[A2C2][AC] E/D/|
     "A"C>E A>E "D"F>E "A"C>E|C>E A>c "D"d/c/B/A/ F>A|\
     "A"C>E A>E "D"F>E "A"C>E|"Bm"[FD]>D "E7"[BD]>G "A"[A2C2][AC]||
c/d/|"A"e>A c>e "D"d/c/B/A/ F>f|"A"e>A c>e "D"f/e/f/g/ "D7"a>f|\
     "A"e>A c>e "F#m"A<c "D"F>A|"E"G<B E>G "A"A2 A>f|
     "A"e>A c>e "D"d/c/B/A/ F>f|"A"e>A c>e "D"f/e/f/g/ "D7"a>f|\
     "A"e>a e/d/c/B/ "D"A>c F>A|"E"G<B E>G "A"A2 A|]

